hosted_logos/odigos.svg

<svg xmlns="http://www.w3.org/2000/svg" width="134" height="32" viewBox="0 0 134 32" fill="151515">
  <g>
    <path d="M78.8529 6.95508H75.6143V25.3457H78.8529V6.95508Z"/>
    <path d="M61.9732 25.3456C61.497 25.3456 61.0493 25.1605 60.7123 24.8219L57.2917 21.4014C56.9563 21.066 56.7681 20.6166 56.7681 20.1404V12.1554C56.7681 11.6792 56.9532 11.2315 57.2917 10.8945L60.7123 7.47395C61.0477 7.13854 61.497 6.95026 61.9732 6.95026H67.0693C67.5012 6.95026 67.9189 7.10689 68.2432 7.39167L68.9567 8.01503V0H72.1953V20.1388C72.1953 20.6151 72.0102 21.0628 71.6717 21.3998L68.2511 24.8203C67.9157 25.1557 67.4664 25.344 66.9902 25.344H61.9717L61.9732 25.3456ZM62.459 10.1936C61.1569 10.1936 60.0984 11.2521 60.0984 12.5541V19.748C60.0984 21.0486 61.1569 22.1086 62.459 22.1086H66.5076C67.8097 22.1086 68.8681 21.0501 68.8681 19.748V12.5541C68.8681 11.2521 67.8097 10.1936 66.5076 10.1936H62.459Z"/>
    <path d="M123.398 25.3455C122.966 25.3455 122.548 25.1889 122.224 24.9041L118.881 21.9804C118.493 21.6418 118.271 21.1513 118.271 20.6387V19.9726H121.611C121.725 21.1687 122.736 22.1053 123.961 22.1053H128.009C129.308 22.1053 130.367 21.0485 130.37 19.7511V19.6262C130.37 19.2211 130.096 18.8746 129.704 18.7813L119.449 16.3385C118.724 16.1661 118.23 15.5 118.273 14.7532V12.1554C118.273 11.6792 118.46 11.2314 118.797 10.8944L122.217 7.47388C122.553 7.13847 123.002 6.9502 123.478 6.9502H128.574C129.006 6.9502 129.424 7.10683 129.748 7.39161L133.091 10.3138C133.479 10.6524 133.7 11.1428 133.7 11.6554V12.9892H130.375V12.3215H130.359C130.245 11.1254 129.234 10.1888 128.009 10.1888H123.961C122.659 10.1888 121.6 11.2472 121.6 12.5493V12.7329C121.6 13.1315 121.871 13.478 122.257 13.5745L130.914 15.7373L132.512 16.1186C133.175 16.2768 133.658 16.8685 133.686 17.5583L133.691 17.6944L133.694 17.6975V20.1388C133.694 20.615 133.509 21.0627 133.17 21.3997L129.75 24.8203C129.414 25.1557 128.965 25.3439 128.489 25.3439H123.393L123.398 25.3455Z"/>
    <path d="M77.2329 3.23872C76.339 3.23872 75.6128 2.51095 75.6128 1.61863C75.6128 0.726311 76.339 -0.00146484 77.2329 -0.00146484C78.1268 -0.00146484 78.853 0.726311 78.853 1.61863C78.853 2.51095 78.1268 3.23872 77.2329 3.23872Z"/>
    <path d="M86.9992 31.9998V28.7612H91.8041C93.1062 28.7612 94.1646 27.7028 94.1646 26.4007V24.2094L93.5508 24.8233C93.2154 25.1587 92.7661 25.347 92.2898 25.347H87.2713C86.7951 25.347 86.3474 25.1619 86.0104 24.8233L82.5898 21.4028C82.2544 21.0674 82.0662 20.618 82.0662 20.1418V12.1568C82.0662 11.6806 82.2513 11.2329 82.5898 10.8959L86.0104 7.47534C86.3458 7.13993 86.7951 6.95166 87.2713 6.95166H92.3674C92.7993 6.95166 93.217 7.10829 93.5413 7.39307L96.8843 10.3153C97.2719 10.6538 97.4934 11.1443 97.4934 11.6569V26.7915C97.4934 27.2677 97.3083 27.7154 96.9697 28.0524L93.5492 31.473C93.2138 31.8084 92.7645 31.9967 92.2882 31.9967H86.9976V31.9998H86.9992ZM87.7571 10.1934C86.4565 10.1934 85.3965 11.2519 85.3965 12.554V19.7479C85.3965 21.0484 86.455 22.1084 87.7571 22.1084H91.8057C93.1078 22.1084 94.1662 21.05 94.1662 19.7479V12.554C94.1662 11.2519 93.1078 10.1934 91.8057 10.1934H87.7571Z"/>
    <path d="M43.494 25.3455C43.0178 25.3455 42.57 25.1604 42.233 24.8218L38.8125 21.4013C38.4771 21.0659 38.2888 20.6166 38.2888 20.1403V12.1554C38.2888 11.6792 38.4739 11.2314 38.8125 10.8944L42.233 7.47388C42.5685 7.13847 43.0178 6.9502 43.494 6.9502H48.59C49.0219 6.9502 49.4396 7.10683 49.764 7.39161L53.107 10.3138C53.4946 10.6524 53.7161 11.1428 53.7161 11.6554V20.1356C53.7161 20.6118 53.531 21.0596 53.1924 21.3966L49.7719 24.8171C49.4365 25.1525 48.9871 25.3408 48.5109 25.3408H43.4924V25.3439L43.494 25.3455ZM43.9797 10.1935C42.6776 10.1935 41.6192 11.252 41.6192 12.5541V19.748C41.6192 21.0501 42.6776 22.1085 43.9797 22.1085H48.0268C49.3289 22.1085 50.3873 21.0501 50.3873 19.748V12.5541C50.3873 11.252 49.3289 10.1935 48.0268 10.1935H43.9797Z"/>
    <path d="M105.275 25.3455C104.798 25.3455 104.351 25.1604 104.014 24.8218L100.593 21.4013C100.258 21.0659 100.069 20.6166 100.069 20.1403V12.1554C100.069 11.6792 100.254 11.2314 100.593 10.8944L104.014 7.47388C104.349 7.13847 104.798 6.9502 105.275 6.9502H110.371C110.802 6.9502 111.22 7.10683 111.544 7.39161L114.887 10.3138C115.275 10.6524 115.497 11.1428 115.497 11.6554V20.1356C115.497 20.6118 115.312 21.0596 114.973 21.3966L111.552 24.8171C111.217 25.1525 110.768 25.3408 110.291 25.3408H105.273V25.3439L105.275 25.3455ZM105.76 10.1935C104.458 10.1935 103.4 11.252 103.4 12.5541V19.748C103.4 21.0501 104.458 22.1085 105.76 22.1085H109.809C111.111 22.1085 112.169 21.0501 112.169 19.748V12.5541C112.169 11.252 111.111 10.1935 109.809 10.1935H105.76Z"/>
    <path d="M7.09898 20.7797L2.52032 18.7561C1.44448 18.2799 0.77524 17.2832 0.77524 16.1536C0.77524 15.0239 1.4429 14.0272 2.52032 13.551L8.92159 10.7205L9.05923 10.6604V6.96143H1.71977C0.770493 6.96143 0 7.69395 0 8.59734V23.7098C0 24.6132 0.770493 25.3457 1.71977 25.3457H8.11154H9.06081V21.6214L7.10056 20.7781H7.09898V20.7797Z"/>
    <path d="M21.1451 6.96143H13.8041V10.7016L15.7279 11.529L15.7232 11.5116L20.343 13.5541C21.4188 14.0303 22.0881 15.0271 22.0881 16.1567C22.0881 17.2864 21.4204 18.2831 20.343 18.7593L14.7486 21.2322L13.8025 21.634V25.3473H21.1435C22.0928 25.3473 22.8633 24.6147 22.8633 23.7114V8.59734C22.8633 7.69395 22.0928 6.96143 21.1435 6.96143H21.1451Z"/>
    <path d="M11.4323 19.954C13.5302 19.954 15.2326 18.2532 15.2326 16.1538C15.2326 14.0543 13.5318 12.3535 11.4323 12.3535C9.33286 12.3535 7.63208 14.0543 7.63208 16.1538C7.63208 18.2532 9.33286 19.954 11.4323 19.954Z"/>
  </g>
</svg>

<svg fill="#151515" width="96" height="96" viewBox="0 0 96 96" xmlns="http://www.w3.org/2000/svg">
  <g transform="translate(-38.289 63.612)">
    <path d="M78.853 6.955h-3.239v18.39h3.239z" />
    <path d="M61.973 25.346c-.476 0-.924-.185-1.26-.524l-3.421-3.42a1.777 1.777 0 0 1-.524-1.262v-7.985c0-.476.185-.923.524-1.26l3.42-3.421a1.776 1.776 0 0 1 1.261-.524h5.096c.432 0 .85.157 1.174.442l.714.623V0h3.238v20.139c0 .476-.185.924-.523 1.26l-3.42 3.421a1.776 1.776 0 0 1-1.262.524h-5.018zm.486-15.152a2.363 2.363 0 0 0-2.36 2.36v7.194c0 1.3 1.058 2.36 2.36 2.36h4.049a2.363 2.363 0 0 0 2.36-2.36v-7.194a2.363 2.363 0 0 0-2.36-2.36z" />
    <path d="M123.398 25.346c-.432 0-.85-.157-1.174-.442l-3.343-2.924a1.783 1.783 0 0 1-.61-1.341v-.666h3.34a2.363 2.363 0 0 0 2.35 2.132h4.048a2.365 2.365 0 0 0 2.361-2.354v-.125a.864.864 0 0 0-.666-.845l-10.255-2.442a1.534 1.534 0 0 1-1.176-1.586v-2.598c0-.476.187-.924.524-1.26l3.42-3.421a1.778 1.778 0 0 1 1.261-.524h5.096c.432 0 .85.157 1.174.442l3.343 2.922c.388.338.609.829.609 1.341v1.334h-3.325v-.667h-.016a2.363 2.363 0 0 0-2.35-2.133h-4.048a2.363 2.363 0 0 0-2.361 2.36v.184c0 .399.271.745.657.842l8.657 2.162 1.598.382c.663.158 1.146.75 1.174 1.44l.005.135.003.003v2.442c0 .476-.185.924-.524 1.26l-3.42 3.421a1.778 1.778 0 0 1-1.261.524h-5.096z" />
    <path d="M77.233 3.239c-.894 0-1.62-.728-1.62-1.62 0-.893.726-1.62 1.62-1.62.894 0 1.62.727 1.62 1.62 0 .892-.726 1.62-1.62 1.62z" />
    <path d="M87 32v-3.24h4.804a2.363 2.363 0 0 0 2.36-2.36v-2.192l-.613.614a1.777 1.777 0 0 1-1.261.524h-5.02c-.476 0-.924-.185-1.26-.524l-3.421-3.42a1.777 1.777 0 0 1-.524-1.261v-7.985c0-.476.185-.924.524-1.261l3.42-3.42a1.776 1.776 0 0 1 1.261-.524h5.096c.432 0 .85.156 1.174.441l3.343 2.922c.388.339.61.83.61 1.342v15.135c0 .476-.186.923-.524 1.26l-3.42 3.421a1.777 1.777 0 0 1-1.262.524h-5.29V32zm.757-21.807c-1.3 0-2.36 1.059-2.36 2.361v7.194c0 1.3 1.058 2.36 2.36 2.36h4.049a2.363 2.363 0 0 0 2.36-2.36v-7.194a2.363 2.363 0 0 0-2.36-2.36z" />
    <path d="M43.494 25.346a1.77 1.77 0 0 1-1.261-.524l-3.42-3.42a1.777 1.777 0 0 1-.524-1.262v-7.985c0-.476.185-.924.524-1.26l3.42-3.421a1.777 1.777 0 0 1 1.261-.524h5.096c.432 0 .85.157 1.174.442l3.343 2.922c.388.338.61.829.61 1.341v8.48c0 .477-.186.925-.525 1.262l-3.42 3.42a1.777 1.777 0 0 1-1.261.524h-5.019v.003zm.486-15.152a2.363 2.363 0 0 0-2.36 2.36v7.194a2.363 2.363 0 0 0 2.36 2.36h4.047a2.363 2.363 0 0 0 2.36-2.36v-7.194a2.363 2.363 0 0 0-2.36-2.36z" />
    <path d="M105.275 25.346c-.477 0-.924-.186-1.261-.524l-3.421-3.42a1.778 1.778 0 0 1-.524-1.262v-7.985c0-.476.185-.924.524-1.26l3.421-3.421a1.775 1.775 0 0 1 1.261-.524h5.096c.431 0 .849.157 1.173.442l3.343 2.922c.388.338.61.829.61 1.341v8.48c0 .477-.185.925-.524 1.262l-3.421 3.42a1.775 1.775 0 0 1-1.261.524h-5.018v.003zm.485-15.152a2.362 2.362 0 0 0-2.36 2.36v7.194a2.362 2.362 0 0 0 2.36 2.36h4.049a2.362 2.362 0 0 0 2.36-2.36v-7.194a2.362 2.362 0 0 0-2.36-2.36z" />
    <path stroke-width="3.051" d="m73.15-21.456-13.968-6.173c-3.282-1.453-5.324-4.494-5.324-7.94 0-3.446 2.037-6.487 5.324-7.94l19.53-8.635.42-.183v-11.285H56.74c-2.896 0-5.247 2.235-5.247 4.99v46.106c0 2.756 2.351 4.99 5.247 4.99h22.396v-11.362l-5.98-2.572h-.005z" />
    <path stroke-width="3.051" d="M116.003-63.612H93.607v11.41l5.869 2.524-.014-.053 14.094 6.232c3.282 1.452 5.324 4.493 5.324 7.94 0 3.446-2.037 6.487-5.324 7.94l-17.068 7.544-2.886 1.226v11.328h22.396c2.896 0 5.247-2.235 5.247-4.99v-46.11c0-2.756-2.351-4.991-5.247-4.991z" />
    <path stroke-width="3.051" d="M86.37-23.975c6.401 0 11.595-5.188 11.595-11.593S92.776-47.162 86.37-47.162c-6.405 0-11.594 5.189-11.594 11.594 0 6.405 5.189 11.593 11.594 11.593z" />
  </g>
</svg>
